src/platform/plugins/shared/home/public/assets/sample_data_resources/logs/icon.svg

<svg width="34" height="32" viewBox="0 0 34 32" fill="none" xmlns="http://www.w3.org/2000/svg">
<path fill-rule="evenodd" clip-rule="evenodd" d="M2.00024 22C2.47508 22.2862 3.49851 22.5776 4.42785 22.8421L4.64995 22.9054C7.06615 23.5957 10.4115 24 14 24C14.7424 24 15.4744 23.9827 16.1899 23.9491C16.3251 24.6338 16.5303 25.2934 16.7976 25.9201C15.8936 25.9725 14.9581 26 14 26C6.26801 26 0 24.2091 0 22V4C0 1.79086 6.26801 0 14 0C21.732 0 28 1.79086 28 4V12.2C27.3538 12.0689 26.6849 12 26 12C24.0582 12 22.2456 12.5535 20.7115 13.5113C18.7188 13.8229 16.4318 14 14 14C8.90735 14 4.44979 13.2231 2 12.0615V16C2.47483 16.2862 3.49851 16.5776 4.42785 16.8421L4.64995 16.9054C7.06615 17.5957 10.4115 18 14 18C14.9798 18 15.9415 17.9699 16.871 17.912C16.5813 18.558 16.3581 19.2404 16.2102 19.9504C15.4903 19.9831 14.7521 20 14 20C8.90735 20 4.44979 19.2231 2 18.0615L2.00024 22ZM2 6.06148V10C2.47483 10.2862 3.49853 10.5776 4.42787 10.8421L4.64995 10.9054C7.06615 11.5957 10.4115 12 14 12C17.5885 12 20.9338 11.5957 23.3501 10.9054L23.5863 10.8381C24.5124 10.5746 25.5311 10.2848 26.0035 10H26V6.06148C23.5502 7.2231 19.0927 8 14 8C8.90735 8 4.44979 7.2231 2 6.06148ZM23.3501 3.09462C20.9338 2.40428 17.5885 2 14 2C10.4115 2 7.06615 2.40428 4.64995 3.09462C3.6667 3.37555 2.89023 3.69073 2.37721 4C2.89023 4.30927 3.6667 4.62445 4.64995 4.90538C7.06615 5.59572 10.4115 6 14 6C17.5885 6 20.9338 5.59572 23.3501 4.90538C24.3333 4.62445 25.1098 4.30927 25.6228 4C25.1098 3.69073 24.3333 3.37555 23.3501 3.09462Z" fill="#343741"/>
<path fill-rule="evenodd" clip-rule="evenodd" d="M18 22.5333H18.0175C18.2919 26.703 21.7609 30 26 30C30.2391 30 33.7081 26.703 33.9825 22.5333H34V21.4667H33.9825C33.7081 17.2971 30.2391 14 26 14C21.7609 14 18.2919 17.2971 18.0175 21.4667H18V22.5333ZM20.1566 25.7333C19.5567 24.7964 19.1761 23.7056 19.0869 22.5333H22.2748C22.3102 23.6833 22.4589 24.767 22.6973 25.7333H20.1566ZM22.2748 21.4667H19.0869C19.1761 20.2944 19.5567 19.2036 20.1566 18.2667H22.6973C22.4589 19.233 22.3102 20.3167 22.2748 21.4667ZM29.7252 22.5333H32.9131C32.824 23.7056 32.4433 24.7964 31.8434 25.7333H29.3027C29.5411 24.767 29.6898 23.6833 29.7252 22.5333ZM31.8434 18.2667C32.4433 19.2036 32.824 20.2944 32.9131 21.4667H29.7252C29.6898 20.3167 29.5411 19.233 29.3027 18.2667H31.8434ZM23.7991 25.7333C23.5494 24.802 23.3815 23.7139 23.3422 22.5333H28.6578C28.6185 23.7139 28.4506 24.802 28.2009 25.7333H23.7991ZM28.2009 18.2667C28.4506 19.198 28.6185 20.2861 28.6578 21.4667H23.3422C23.3815 20.2861 23.5494 19.198 23.7991 18.2667H28.2009ZM23.895 28.608C22.7802 28.2532 21.7877 27.6241 20.9969 26.8H23.0131C23.2587 27.5009 23.5569 28.1125 23.895 28.608ZM28.9869 26.8H31.0031C30.2123 27.6241 29.2198 28.2532 28.105 28.608C28.4431 28.1125 28.7413 27.5009 28.9869 26.8ZM26 28.9333C25.3532 28.9333 24.6624 28.1223 24.146 26.8H27.854C27.3376 28.1223 26.6468 28.9333 26 28.9333ZM23.0131 17.2H20.9969C21.7877 16.3759 22.7802 15.7468 23.895 15.392C23.5569 15.8875 23.2587 16.4991 23.0131 17.2ZM28.105 15.392C29.2198 15.7468 30.2123 16.3759 31.0031 17.2H28.9869C28.7413 16.4991 28.4431 15.8875 28.105 15.392ZM26 15.0667C26.6468 15.0667 27.3376 15.8777 27.854 17.2H24.146C24.6624 15.8777 25.3532 15.0667 26 15.0667Z" fill="#343741"/>
</svg>

<svg xmlns="http://www.w3.org/2000/svg" width="34" height="32" fill="none"><path fill="#343741" fill-rule="evenodd" d="M2 22c.475.286 1.499.578 2.428.842l.222.063C7.066 23.595 10.412 24 14 24q1.114 0 2.19-.05a10 10 0 0 0 .608 1.97c-.904.052-1.84.08-2.798.08-7.732 0-14-1.79-14-4V4c0-2.21 6.268-4 14-4s14 1.79 14 4v8.2q-.97-.198-2-.2a9.95 9.95 0 0 0-5.288 1.511c-1.993.312-4.28.489-6.712.489-5.093 0-9.55-.777-12-1.938V16c.475.286 1.499.578 2.428.842l.222.063C7.066 17.595 10.412 18 14 18c.98 0 1.941-.03 2.871-.088a10 10 0 0 0-.66 2.038Q15.128 20 14 20c-5.093 0-9.55-.777-12-1.939zM2 6.061V10c.475.286 1.499.578 2.428.842l.222.063C7.066 11.595 10.412 12 14 12s6.934-.404 9.35-1.095l.236-.067c.926-.263 1.945-.553 2.418-.838H26V6.061C23.55 7.223 19.093 8 14 8S4.45 7.223 2 6.061m21.35-2.966C20.934 2.405 17.588 2 14 2s-6.934.404-9.35 1.095c-.983.28-1.76.596-2.273.905.513.31 1.29.624 2.273.905C7.066 5.595 10.412 6 14 6s6.934-.404 9.35-1.095c.983-.28 1.76-.596 2.273-.905-.513-.31-1.29-.624-2.273-.905" clip-rule="evenodd"/><path fill="#343741" fill-rule="evenodd" d="M18 22.533h.017a8 8 0 0 0 15.966 0H34v-1.066h-.017a8 8 0 0 0-15.965 0H18zm2.157 3.2a6.9 6.9 0 0 1-1.07-3.2h3.188c.035 1.15.184 2.234.422 3.2zm2.118-4.266h-3.188a6.9 6.9 0 0 1 1.07-3.2h2.54c-.238.966-.387 2.05-.422 3.2m7.45 1.066h3.188a6.9 6.9 0 0 1-1.07 3.2h-2.54c.238-.966.387-2.05.422-3.2m2.118-4.266c.6.937.981 2.027 1.07 3.2h-3.188a15.4 15.4 0 0 0-.422-3.2zM23.8 25.733c-.25-.931-.418-2.02-.457-3.2h5.316a14.3 14.3 0 0 1-.457 3.2zm4.402-7.466c.25.931.418 2.02.457 3.2h-5.316c.04-1.18.207-2.269.457-3.2zm-4.306 10.341a6.93 6.93 0 0 1-2.898-1.808h2.016c.246.7.544 1.313.882 1.808m5.092-1.808h2.016a6.93 6.93 0 0 1-2.898 1.808c.338-.495.636-1.107.882-1.808M26 28.933c-.647 0-1.338-.81-1.854-2.133h3.708c-.516 1.322-1.207 2.133-1.854 2.133M23.013 17.2h-2.016a6.93 6.93 0 0 1 2.898-1.808c-.338.495-.636 1.107-.882 1.808m5.092-1.808a6.93 6.93 0 0 1 2.898 1.808h-2.016c-.246-.7-.544-1.312-.882-1.808M26 15.067c.647 0 1.338.81 1.854 2.133h-3.708c.516-1.322 1.207-2.133 1.854-2.133" clip-rule="evenodd"/></svg>
